X: 34608
T: Road Downhill, The
R: jig
M: 6/8
K: Dmixolydian
f2e|:d2e d2c|d2f d2c|g2a b2a|g2e f2e|
d2e f2a|e2c B2c|1 d2e f2d|d3 f2e:|2 d2e f2d|d3 ddd||
fef aga|c'ag fef|gag bge|dcd gfe|
aga efe|abg efe|1 dBG ABf|d3 ddd:|2 dBG ABf|d3 f2e||
d2e d2c|d2f d2c|gfa b2a|g2e f2e|
dfe f2a|e2c B2c|def e2d|d3 z3||

